src/assets/twitter.svg

<?xml version="1.0" encoding="UTF-8" standalone="no"?>
<svg
   xmlns:dc="http://purl.org/dc/elements/1.1/"
   xmlns:cc="http://creativecommons.org/ns#"
   xmlns:rdf="http://www.w3.org/1999/02/22-rdf-syntax-ns#"
   xmlns:svg="http://www.w3.org/2000/svg"
   xmlns="http://www.w3.org/2000/svg"
   xmlns:sodipodi="http://sodipodi.sourceforge.net/DTD/sodipodi-0.dtd"
   xmlns:inkscape="http://www.inkscape.org/namespaces/inkscape"
   inkscape:version="1.0 (4035a4fb49, 2020-05-01)"
   sodipodi:docname="twitter.svg"
   viewBox="0 0 90.708664 90.705377"
   height="90.705376"
   width="90.708664"
   id="svg919"
   version="1.1">
  <sodipodi:namedview
     inkscape:current-layer="svg919"
     inkscape:window-maximized="0"
     inkscape:window-y="0"
     inkscape:window-x="0"
     inkscape:cy="54.561302"
     inkscape:cx="26.300378"
     inkscape:zoom="9.2828015"
     showgrid="false"
     id="namedview898"
     inkscape:window-height="1347"
     inkscape:window-width="1876"
     inkscape:pageshadow="2"
     inkscape:pageopacity="0"
     guidetolerance="10"
     gridtolerance="10"
     objecttolerance="10"
     borderopacity="1"
     bordercolor="#666666"
     pagecolor="#ffffff" />
  <metadata
     id="metadata925">
    <rdf:RDF>
      <cc:Work
         rdf:about="">
        <dc:format>image/svg+xml</dc:format>
        <dc:type
           rdf:resource="http://purl.org/dc/dcmitype/StillImage" />
        <dc:title />
      </cc:Work>
    </rdf:RDF>
  </metadata>
  <defs
     id="defs923" />
  <path
     sodipodi:nodetypes="scsscccscccsccccccscsccsccsccccccccccscccscscccccscccssccccccccccsccc"
     id="path1472"
     d="M 4.9182362,65.918899 C 4.8206731,65.710699 4.5094107,65.048799 4.2265409,64.447999 1.9428995,59.597399 0.49107632,53.981499 0.11561154,48.546099 -0.25050426,43.246099 0.24683669,38.413999 1.6946886,33.203999 2.5677602,30.062299 3.5010045,27.616299 4.8347972,24.973899 8.2186607,18.270099 12.933618,12.805299 19.27312,8.2394995 20.561733,7.3114995 24.79856,4.8652995 26.246604,4.2133995 35.078591,0.23709949 44.021339,-0.91480051 53.403401,0.71529949 55.299242,1.0446995 59.795574,2.3156995 61.68489,3.0560995 70.235235,6.4072995 76.998945,11.692299 82.492379,19.314599 83.378928,20.544799 85.851062,24.826899 86.47206,26.208099 90.542392,35.261099 91.666387,44.308599 89.901895,53.816099 89.591605,55.487999 88.565494,59.233399 87.98784,60.802399 85.949946,66.337999 83.143989,71.055699 79.310936,75.391199 71.3982,84.341099 60.347544,89.767699 48.335926,90.601799 44.539073,90.865499 40.749988,90.626899 36.746323,89.871999 35.1495,89.570999 31.496984,88.575799 30.009644,88.036499 21.303763,84.879999 14.03705,79.393399 8.5127981,71.805699 7.7893706,70.811999 5.3033887,66.740799 4.9182362,65.918899 Z M 20.547505,59.707313 C 23.214615,62.506213 26.368958,64.671413 29.999579,66.195313 31.362608,66.767413 34.888543,67.728013 36.483437,67.961713 44.354072,69.115213 51.824543,66.998013 58.066194,61.844813 63.042651,57.736213 66.550383,51.898062 68.475575,45.665713 L 68.829625,44.367213 69.41059,44.135213 C 70.75991,43.596313 73.399232,41.918351 74.702274,40.770713 L 74.985673,40.521113 74.43691,40.588713 C 72.940802,40.773113 69.922133,40.756313 69.393597,40.560713 69.252974,40.508613 69.289494,40.477113 69.655109,40.334713 69.888834,40.243713 70.638008,39.844413 71.319933,39.447513 72.404444,38.816213 72.641445,38.643213 73.211435,38.066713 73.967323,37.302113 74.833616,36.195013 74.695679,36.169813 74.643555,36.160313 74.330217,36.225113 73.999372,36.313813 72.578151,36.695013 70.247042,36.929913 68.620509,36.855813 L 67.990195,36.827113 67.533957,36.036913 C 66.245682,33.805633 64.090787,32.191313 61.551861,31.555713 59.929187,31.149413 58.585927,31.145213 56.858601,31.540913 56.071838,31.721113 55.921649,31.788913 54.493167,32.608413 53.063768,33.428613 52.925804,33.526513 52.299454,34.166313 51.490318,34.992813 50.700597,36.115313 50.177795,37.182113 49.740765,38.073813 49.208044,39.969113 49.148498,40.844113 49.126806,41.162913 49.085739,41.438413 49.057237,41.456313 48.993263,41.496713 47.339685,40.847113 46.351413,40.393513 40.358251,37.642313 35.268528,32.371113 32.486256,26.034013 32.293744,25.595513 32.104376,25.228213 32.065441,25.217813 31.959553,25.189413 31.144995,26.227713 30.689243,26.971913 28.453749,30.622613 28.486256,35.525713 30.76844,38.916913 31.372771,39.814913 31.359637,39.822513 30.175223,39.261513 29.348635,38.870013 28.45034,38.267413 27.803131,37.670313 27.577008,37.461713 27.361352,37.325513 27.323889,37.367813 27.176719,37.533713 26.923053,39.595313 26.938978,40.495913 26.958587,41.604813 27.092212,42.492213 27.404606,43.587913 27.591898,44.244813 27.760864,44.601313 28.440775,45.774013 29.172373,47.035913 29.320522,47.242713 29.930524,47.852913 30.303067,48.225613 30.98395,48.780013 31.443589,49.084713 31.903236,49.389513 32.227694,49.638813 32.164609,49.638813 31.114702,49.638613 29.725065,49.362113 28.734558,48.956413 L 27.943463,48.632413 27.962268,49.019113 C 27.972604,49.231913 28.041722,49.752613 28.115858,50.176413 28.770988,53.921113 31.104901,56.771613 34.619597,58.119613 L 34.997228,58.264413 34.483486,58.483413 C 31.84405,59.608563 28.460739,60.196113 25.645169,60.018213 23.913114,59.908713 21.858873,59.477613 20.199992,58.875413 19.58499,58.652213 19.6185,58.732413 20.547505,59.707313 Z"
     style="fill:#000000;stroke-width:0.092555" />
</svg>

<svg xmlns="http://www.w3.org/2000/svg" height="90.705" width="90.709"><path d="m4.918 65.919-.691-1.471C1.943 59.598.49 53.981.116 48.546c-.367-5.3.13-10.132 1.579-15.342.873-3.142 1.806-5.588 3.14-8.23 3.384-6.704 8.099-12.169 14.438-16.735 1.289-.928 5.526-3.374 6.974-4.026C35.079.237 44.02-.915 53.403.715c1.896.33 6.393 1.6 8.282 2.341 8.55 3.351 15.314 8.636 20.807 16.259.887 1.23 3.36 5.512 3.98 6.893 4.07 9.053 5.194 18.1 3.43 27.608-.31 1.672-1.337 5.417-1.914 6.986-2.038 5.536-4.844 10.254-8.677 14.59-7.913 8.95-18.963 14.376-30.975 15.21-3.797.263-7.586.025-11.59-.73-1.596-.301-5.249-1.296-6.736-1.836-8.706-3.156-15.973-8.643-21.497-16.23-.724-.994-3.21-5.065-3.595-5.887zm15.63-6.212c2.667 2.8 5.821 4.964 9.452 6.488 1.363.572 4.889 1.533 6.483 1.767 7.871 1.153 15.342-.964 21.583-6.117 4.977-4.109 8.484-9.947 10.41-16.18l.354-1.298.58-.232c1.35-.539 3.99-2.217 5.292-3.364l.284-.25-.55.068c-1.495.184-4.514.167-5.042-.028-.141-.052-.105-.084.261-.226.234-.091.983-.49 1.665-.887 1.084-.632 1.321-.805 1.891-1.381.756-.765 1.623-1.872 1.485-1.897-.052-.01-.366.055-.697.144-1.42.381-3.752.616-5.378.542l-.63-.029-.457-.79c-1.288-2.231-3.443-3.846-5.982-4.481-1.623-.407-2.966-.41-4.693-.015-.787.18-.937.248-2.366 1.067-1.43.82-1.567.919-2.194 1.558a12.238 12.238 0 0 0-2.121 3.016c-.437.892-.97 2.787-1.03 3.662-.021.319-.062.594-.09.612-.065.04-1.718-.609-2.707-1.062-5.993-2.752-11.082-8.023-13.865-14.36-.192-.438-.382-.806-.42-.816-.106-.029-.921 1.01-1.377 1.754-2.235 3.65-2.203 8.554.08 11.945.604.898.59.906-.594.345a10.097 10.097 0 0 1-2.372-1.592c-.226-.208-.442-.344-.48-.302-.146.166-.4 2.227-.384 3.128.02 1.109.153 1.996.466 3.092.187.657.356 1.013 1.036 2.186.731 1.262.88 1.469 1.49 2.079.372.373 1.053.927 1.513 1.232.46.305.784.554.72.554-1.05 0-2.439-.277-3.43-.683l-.79-.324.018.387c.01.213.08.734.154 1.157.655 3.745 2.989 6.596 6.504 7.944l.377.144-.514.22c-2.639 1.125-6.022 1.712-8.838 1.534-1.732-.11-3.786-.54-5.445-1.143-.615-.223-.581-.143.348.832z" style="fill:#000;stroke-width:.092555"/></svg>
